src/lib/packages/icons/src/assets/filled/folder-times.svg

<svg width="24" height="24" viewBox="0 0 24 24" fill="none" xmlns="http://www.w3.org/2000/svg">
<path d="M18 7H13L10 4H6C4 4 3 5 3 7V17C3 19 4 20 6 20H18C20 20 21 19 21 17V10C21 8 20 7 18 7ZM14.53 14.97C14.823 15.263 14.823 15.738 14.53 16.031C14.384 16.177 14.192 16.251 14 16.251C13.808 16.251 13.616 16.178 13.47 16.031L12 14.561L10.53 16.031C10.384 16.177 10.192 16.251 10 16.251C9.808 16.251 9.61597 16.178 9.46997 16.031C9.17697 15.738 9.17697 15.263 9.46997 14.97L10.9399 13.5L9.46997 12.03C9.17697 11.737 9.17697 11.262 9.46997 10.969C9.76297 10.676 10.238 10.676 10.531 10.969L12.001 12.439L13.4709 10.969C13.7639 10.676 14.239 10.676 14.532 10.969C14.825 11.262 14.825 11.737 14.532 12.03L13.062 13.5L14.53 14.97Z" fill="currentColor"/>
</svg>

<svg xmlns="http://www.w3.org/2000/svg" width="24" height="24" fill="none"><path fill="currentColor" d="M18 7h-5l-3-3H6C4 4 3 5 3 7v10c0 2 1 3 3 3h12c2 0 3-1 3-3v-7c0-2-1-3-3-3Zm-3.47 7.97a.75.75 0 0 1-1.06 1.061L12 14.561l-1.47 1.47a.748.748 0 0 1-1.06 0 .75.75 0 0 1 0-1.061l1.47-1.47-1.47-1.47a.75.75 0 1 1 1.061-1.061l1.47 1.47 1.47-1.47a.75.75 0 0 1 1.061 1.061l-1.47 1.47 1.468 1.47Z"/></svg>
